icons/edit.svg

<?xml version="1.0" standalone="no"?><!-- Generator: Gravit.io --><svg xmlns="http://www.w3.org/2000/svg" xmlns:xlink="http://www.w3.org/1999/xlink" width="96" height="96"><path d=" M 36 16 C 37.1 16 38.300000000000004 16.200000000000003 39 17 C 39.800000000000004 17.700000000000003 40 18.9 40 20 C 40 21.1 39.800000000000004 22.3 39 23 C 38.300000000000004 23.8 37.1 24 36 24 L 16 24 L 16 80 L 71.85 80.15 L 72 60 C 72 58.9 72.19999999999999 57.699999999999996 73 57 C 73.69999999999999 56.199999999999996 74.9 56 76 56 C 77.1 56 78.29999999999998 56.199999999999996 79 57 C 79.79999999999998 57.699999999999996 80 58.9 80 60 L 80 80 C 80 82.1 79.05000000000001 84.35 77.55000000000001 85.85 C 76.05000000000001 87.35 74.1 88 72 88 L 16 88 C 13.899999999999999 88 11.650000000000002 87.35 10.150000000000002 85.85 C 8.650000000000002 84.35 8 82.1 8 80 L 8 24 C 8 21.9 8.650000000000002 19.95 10.150000000000002 18.45 C 11.650000000000002 16.95 13.899999999999999 16 16 16 L 36 16 Z  M 73.55000000000001 12.149999999999999 L 83.85 22.45 C 83.85 22.45 83.85 22.45 83.85 22.45 C 85.35 23.95 86.15 26.049999999999997 86.15 28.15 C 86.15 30.25 85.35 32.349999999999994 83.85 33.849999999999994 C 83.85 33.849999999999994 83.85 33.849999999999994 83.85 33.849999999999994 L 57.550000000000004 60.15 C 54.95 62.75 51.45 64.15 47.85 64.15 L 31.85 64.15 L 31.85 48.15 C 31.85 44.55 33.25 41.05 35.85 38.449999999999996 L 62.15 12.149999999999999 C 62.15 12.149999999999999 62.15 12.149999999999999 62.15 12.149999999999999 C 63.65 10.649999999999999 65.75 9.849999999999998 67.85 9.849999999999998 C 69.94999999999999 9.849999999999998 72.05000000000001 10.649999999999999 73.55000000000001 12.149999999999999 C 73.55000000000001 12.149999999999999 73.55000000000001 12.149999999999999 73.55000000000001 12.149999999999999 Z  M 67.85 17.849999999999998 L 78.15 28.15 L 51.85 54.449999999999996 C 50.75 55.55 49.35 56.15 47.85 56.15 L 39.85 56.15 L 39.85 48.15 C 39.85 46.65 40.45 45.25 41.550000000000004 44.15 L 67.85 17.849999999999998 Z " fill-rule="evenodd" fill="#454545" stroke="none"/><mask id="_mask_Fo04I1lGblminzMQn1J02deSbpMVpp1o"><path d=" M 36 16 C 37.1 16 38.300000000000004 16.200000000000003 39 17 C 39.800000000000004 17.700000000000003 40 18.9 40 20 C 40 21.1 39.800000000000004 22.3 39 23 C 38.300000000000004 23.8 37.1 24 36 24 L 16 24 L 16 80 L 71.85 80.15 L 72 60 C 72 58.9 72.19999999999999 57.699999999999996 73 57 C 73.69999999999999 56.199999999999996 74.9 56 76 56 C 77.1 56 78.29999999999998 56.199999999999996 79 57 C 79.79999999999998 57.699999999999996 80 58.9 80 60 L 80 80 C 80 82.1 79.05000000000001 84.35 77.55000000000001 85.85 C 76.05000000000001 87.35 74.1 88 72 88 L 16 88 C 13.899999999999999 88 11.650000000000002 87.35 10.150000000000002 85.85 C 8.650000000000002 84.35 8 82.1 8 80 L 8 24 C 8 21.9 8.650000000000002 19.95 10.150000000000002 18.45 C 11.650000000000002 16.95 13.899999999999999 16 16 16 L 36 16 Z  M 73.55000000000001 12.149999999999999 L 83.85 22.45 C 83.85 22.45 83.85 22.45 83.85 22.45 C 85.35 23.95 86.15 26.049999999999997 86.15 28.15 C 86.15 30.25 85.35 32.349999999999994 83.85 33.849999999999994 C 83.85 33.849999999999994 83.85 33.849999999999994 83.85 33.849999999999994 L 57.550000000000004 60.15 C 54.95 62.75 51.45 64.15 47.85 64.15 L 31.85 64.15 L 31.85 48.15 C 31.85 44.55 33.25 41.05 35.85 38.449999999999996 L 62.15 12.149999999999999 C 62.15 12.149999999999999 62.15 12.149999999999999 62.15 12.149999999999999 C 63.65 10.649999999999999 65.75 9.849999999999998 67.85 9.849999999999998 C 69.94999999999999 9.849999999999998 72.05000000000001 10.649999999999999 73.55000000000001 12.149999999999999 C 73.55000000000001 12.149999999999999 73.55000000000001 12.149999999999999 73.55000000000001 12.149999999999999 Z  M 67.85 17.849999999999998 L 78.15 28.15 L 51.85 54.449999999999996 C 50.75 55.55 49.35 56.15 47.85 56.15 L 39.85 56.15 L 39.85 48.15 C 39.85 46.65 40.45 45.25 41.550000000000004 44.15 L 67.85 17.849999999999998 Z " fill-rule="evenodd" fill="white" stroke="none"/></mask><path d=" M 36 16 C 37.1 16 38.300000000000004 16.200000000000003 39 17 C 39.800000000000004 17.700000000000003 40 18.9 40 20 C 40 21.1 39.800000000000004 22.3 39 23 C 38.300000000000004 23.8 37.1 24 36 24 L 16 24 L 16 80 L 71.85 80.15 L 72 60 C 72 58.9 72.19999999999999 57.699999999999996 73 57 C 73.69999999999999 56.199999999999996 74.9 56 76 56 C 77.1 56 78.29999999999998 56.199999999999996 79 57 C 79.79999999999998 57.699999999999996 80 58.9 80 60 L 80 80 C 80 82.1 79.05000000000001 84.35 77.55000000000001 85.85 C 76.05000000000001 87.35 74.1 88 72 88 L 16 88 C 13.899999999999999 88 11.650000000000002 87.35 10.150000000000002 85.85 C 8.650000000000002 84.35 8 82.1 8 80 L 8 24 C 8 21.9 8.650000000000002 19.95 10.150000000000002 18.45 C 11.650000000000002 16.95 13.899999999999999 16 16 16 L 36 16 Z  M 73.55000000000001 12.149999999999999 L 83.85 22.45 C 83.85 22.45 83.85 22.45 83.85 22.45 C 85.35 23.95 86.15 26.049999999999997 86.15 28.15 C 86.15 30.25 85.35 32.349999999999994 83.85 33.849999999999994 C 83.85 33.849999999999994 83.85 33.849999999999994 83.85 33.849999999999994 L 57.550000000000004 60.15 C 54.95 62.75 51.45 64.15 47.85 64.15 L 31.85 64.15 L 31.85 48.15 C 31.85 44.55 33.25 41.05 35.85 38.449999999999996 L 62.15 12.149999999999999 C 62.15 12.149999999999999 62.15 12.149999999999999 62.15 12.149999999999999 C 63.65 10.649999999999999 65.75 9.849999999999998 67.85 9.849999999999998 C 69.94999999999999 9.849999999999998 72.05000000000001 10.649999999999999 73.55000000000001 12.149999999999999 C 73.55000000000001 12.149999999999999 73.55000000000001 12.149999999999999 73.55000000000001 12.149999999999999 Z  M 67.85 17.849999999999998 L 78.15 28.15 L 51.85 54.449999999999996 C 50.75 55.55 49.35 56.15 47.85 56.15 L 39.85 56.15 L 39.85 48.15 C 39.85 46.65 40.45 45.25 41.550000000000004 44.15 L 67.85 17.849999999999998 Z " fill-rule="evenodd" fill="none" stroke="none" stroke-width="16" mask="url(#_mask_Fo04I1lGblminzMQn1J02deSbpMVpp1o)"/></svg>

<svg xmlns="http://www.w3.org/2000/svg" width="96" height="96"><path d="M36 16c1.1 0 2.3.2 3 1 .8.7 1 1.9 1 3s-.2 2.3-1 3c-.7.8-1.9 1-3 1H16v56l55.85.15L72 60c0-1.1.2-2.3 1-3 .7-.8 1.9-1 3-1s2.3.2 3 1c.8.7 1 1.9 1 3v20c0 2.1-.95 4.35-2.45 5.85C76.05 87.35 74.1 88 72 88H16c-2.1 0-4.35-.65-5.85-2.15S8 82.1 8 80V24c0-2.1.65-4.05 2.15-5.55S13.9 16 16 16h20zm37.55-3.85l10.3 10.3c1.5 1.5 2.3 3.6 2.3 5.7s-.8 4.2-2.3 5.7l-26.3 26.3c-2.6 2.6-6.1 4-9.7 4h-16v-16c0-3.6 1.4-7.1 4-9.7l26.3-26.3c1.5-1.5 3.6-2.3 5.7-2.3s4.2.8 5.7 2.3zm-5.7 5.7l10.3 10.3-26.3 26.3c-1.1 1.1-2.5 1.7-4 1.7h-8v-8c0-1.5.6-2.9 1.7-4l26.3-26.3z" fill-rule="evenodd" fill="#454545"/></svg>
